svg/media/danmaku_line.svg

<svg xmlns="http://www.w3.org/2000/svg" width="24" height="24" viewBox="0 0 24 24"><g fill="none"><path d="M24,0 L24,24 L0,24 L0,0 L24,0 Z M12.5935,23.2578 L12.5819,23.2595 L12.5109,23.295 L12.4919,23.2987 L12.4767,23.295 L12.4057,23.2595 C12.3958,23.2564 12.387,23.259 12.3821,23.2649 L12.378,23.2758 L12.3609,23.7031 L12.3659,23.7235 L12.3769,23.7357 L12.4805,23.8097 L12.4953,23.8136 L12.5071,23.8097 L12.6107,23.7357 L12.6233,23.7197 L12.6267,23.7031 L12.6096,23.2758 C12.6076,23.2657 12.601,23.2593 12.5935,23.2578 Z M12.8584,23.1453 L12.8445,23.1473 L12.6598,23.2397 L12.6499,23.2499 L12.6472,23.2611 L12.6651,23.6906 L12.6699,23.7034 L12.6784,23.7105 L12.8793,23.8032 C12.8914,23.8069 12.9022,23.803 12.9078,23.7952 L12.9118,23.7812 L12.8777,23.1665 C12.8753,23.1546 12.8674,23.147 12.8584,23.1453 Z M12.143,23.1473 C12.1332,23.1424 12.1222,23.1453 12.1156,23.1526 L12.1099,23.1665 L12.0758,23.7812 C12.0751,23.7927 12.0828,23.8019 12.0926,23.8046 L12.1083,23.8032 L12.3092,23.7105 L12.3186,23.7024 L12.3225,23.6906 L12.3404,23.2611 L12.3372,23.2485 L12.3278,23.2397 L12.143,23.1473 Z"/><path fill="#09244B" d="M9,12 C9.55228,12 10,12.4477 10,13 C10,13.51285 9.61395571,13.9355092 9.11662025,13.9932725 L9,14 L4,14 L4,15 C4,15.51285 4.38604429,15.9355092 4.88337975,15.9932725 L5,16 L6.5,16 C7.27969882,16 7.920449,16.5949121 7.99313345,17.3555442 L8,17.5 L8,18 L10.1333,16.4 C10.4300429,16.1774857 10.7818143,16.0425469 11.1487519,16.0085341 L11.3333,16 L18,16 C18.51285,16 18.9355092,15.613973 18.9932725,15.1166239 L19,15 L19,12 L21,12 L21,15 C21,16.597725 19.7511226,17.903664 18.1762773,17.9949075 L18,18 L11.3333,18 L8,20.5 C7.2089216,21.09328 6.09351373,20.5752026 6.00554682,19.6214406 L6,19.5 L6,18 L5,18 C3.40232321,18 2.09633941,16.7511226 2.00509271,15.1762773 L2,15 L2,13 C2,12.48715 2.38604429,12.0644908 2.88337975,12.0067275 L3,12 L9,12 Z M15,12 C15.5523,12 16,12.4477 16,13 C16,13.51285 15.613973,13.9355092 15.1166239,13.9932725 L15,14 L13,14 C12.4477,14 12,13.5523 12,13 C12,12.48715 12.386027,12.0644908 12.8833761,12.0067275 L13,12 L15,12 Z M7,8 C7.55228,8 8,8.44772 8,9 C8,9.51283143 7.61395571,9.93550653 7.11662025,9.9932722 L7,10 L5,10 C4.44772,10 4,9.55228 4,9 C4,8.48716857 4.38604429,8.06449347 4.88337975,8.0067278 L5,8 L7,8 Z M19,8 L19.1166239,8.0067278 C19.613973,8.06449347 20,8.48716857 20,9 C20,9.51283143 19.613973,9.93550653 19.1166239,9.9932722 L19,10 L11,10 C10.4477,10 10,9.55228 10,9 C10,8.48716857 10.386027,8.06449347 10.8833761,8.0067278 L11,8 L19,8 Z M18,3 C19.597725,3 20.903664,4.24892392 20.9949075,5.82372764 L21,6 L21,8 L19,8 L19,6 C19,5.48716857 18.613973,5.06449347 18.1166239,5.0067278 L18,5 L5,5 C4.48716857,5 4.06449347,5.38604429 4.0067278,5.88337975 L4,6 L4,8 L2,8 L2,6 C2,4.40232321 3.24892392,3.09633941 4.82372764,3.00509271 L5,3 L18,3 Z"/></g></svg>

<svg xmlns="http://www.w3.org/2000/svg" width="24" height="24"><g fill="none"><path d="M24 0v24H0V0zM12.594 23.258l-.012.002-.071.035-.02.004-.014-.004-.071-.036c-.01-.003-.019 0-.024.006l-.004.01-.017.428.005.02.01.013.104.074.015.004.012-.004.104-.074.012-.016.004-.017-.017-.427c-.002-.01-.009-.017-.016-.018m.264-.113-.014.002-.184.093-.01.01-.003.011.018.43.005.012.008.008.201.092c.012.004.023 0 .029-.008l.004-.014-.034-.614c-.003-.012-.01-.02-.02-.022m-.715.002a.023.023 0 0 0-.027.006l-.006.014-.034.614c0 .012.007.02.017.024l.015-.002.201-.093.01-.008.003-.011.018-.43-.003-.012-.01-.01z"/><path fill="#09244B" d="M9 12a1 1 0 0 1 .117 1.993L9 14H4v1a1 1 0 0 0 .883.993L5 16h1.5a1.5 1.5 0 0 1 1.493 1.356L8 17.5v.5l2.133-1.6a2 2 0 0 1 1.016-.391l.184-.009H18a1 1 0 0 0 .993-.883L19 15v-3h2v3a3 3 0 0 1-2.824 2.995L18 18h-6.667L8 20.5c-.791.593-1.906.075-1.994-.879L6 19.5V18H5a3 3 0 0 1-2.995-2.824L2 15v-2a1 1 0 0 1 .883-.993L3 12zm6 0a1 1 0 0 1 .117 1.993L15 14h-2a1 1 0 0 1-.117-1.993L13 12zM7 8a1 1 0 0 1 .117 1.993L7 10H5a1 1 0 0 1-.117-1.993L5 8zm12 0 .117.007a1 1 0 0 1 0 1.986L19 10h-8a1 1 0 0 1-.117-1.993L11 8zm-1-5a3 3 0 0 1 2.995 2.824L21 6v2h-2V6a1 1 0 0 0-.883-.993L18 5H5a1 1 0 0 0-.993.883L4 6v2H2V6a3 3 0 0 1 2.824-2.995L5 3z"/></g></svg>
